X: 68
P: No. LXIX.
M: 6/8
L: 1/8
K: F
V: 1
|:\
|:\
(a/b/c')a (g/a/b)g | fcf fcf | d'(b/c'/d'/b/) c'(a/b/c'/a/) | gdg gab |\
a(b/a/g/f/) efg | (cd/c/B) ABc | (d/e/f)d ece | fFF F3 :|
V: 2 clef=bass middle=d
|:\
f3 F3 | f3 faf | b3 c'3 | c3 c2z |\
f3 b3 | f3 f2e | d2B c2c | f3 F3 :|
|:\
f3 e3 | f3 F3 | b3 a3 | g3 g3 |\
f2b c'2c | e2c f2a | b2g c'2c | f3 F3 :|

